ligands/tetradentate/nta-nitrilotriacetate.svg

<svg height="256" viewBox="0 0 256 256" width="256" xmlns="http://www.w3.org/2000/svg"><path d="m0 0h256v256h-256z" fill="#fff"/><ellipse cx="118.2" cy="134.9" fill="#ff7f7f" fill-rule="evenodd" rx="12.7" ry="12.7" stroke="#ff7f7f"/><g fill="none" stroke="#000" stroke-width="2"><path d="m121.1 97 10.5-3.9"/><path d="m137.3 102.8-6.2-24.3"/><path d="m128.7 94.2-3.7-14.2"/><path d="m131.6 93.1 26.7 45"/><path d="m158.3 138.1-20.7 26.2"/><path d="m121.5 179.7-25.9 18.4"/><path d="m95.6 198.1-33.8-25"/><path d="m63 169.5-34.3 8.7"/><path d="m65.1 175.5-34.9 8.7"/><path d="m61.8 173.1 8.8-25.1"/><path d="m139.5 173.4 36.7.7"/><path d="m176.2 174.1 17.3-42"/><path d="m192.1 135.6 34.7-7.5"/><path d="m190.5 129.5 35-7.6"/><path d="m193.5 132.1-22.3-19.1"/><path d="m111.4 116.7 3.4 9.2"/><path d="m127.6 164.3-4.9-15.3"/><path d="m91.1 134.3 18.1.4"/><path d="m153.2 111.4-26 17.5"/><path d="m131.1 93.3.5-.2 1.4 2.3" stroke-miterlimit="10"/><path d="m157 135.9 1.3 2.2-1.1 1.3" stroke-miterlimit="10"/><path d="m96.9 197.1-1.3 1-1.7-1.3" stroke-miterlimit="10"/><path d="m63.5 174.3-1.7-1.2.4-1.3" stroke-miterlimit="10"/><path d="m174.3 174.1h1.9l.8-2.1" stroke-miterlimit="10"/><path d="m192.6 134.2.9-2.1-1.1-1" stroke-miterlimit="10"/></g><text x="110.6" y="147.6"/><text font-family="sans-serif" font-size="25" x="98.6" y="115.3">O</text><text font-family="sans-serif" font-size="16" x="116.1" y="105.1">-</text><text font-family="sans-serif" font-size="25" x="116.8" y="77.9">O</text><text font-family="sans-serif" font-size="25" x="122.9" y="186">N</text><text font-family="sans-serif" font-size="25" x="12.8" y="196.2">O</text><text font-family="sans-serif" font-size="25" x="67.9" y="146.6">O</text><text font-family="sans-serif" font-size="16" x="85.4" y="136.5">-</text><text font-family="sans-serif" font-size="25" x="227.6" y="135.8">O</text><text font-family="sans-serif" font-size="25" x="154.5" y="118">O</text><text font-family="sans-serif" font-size="16" x="172.1" y="107.8">-</text></svg>

<?xml version='1.0' encoding='iso-8859-1'?>
<svg version='1.1' baseProfile='full'
              xmlns='http://www.w3.org/2000/svg'
                      xmlns:rdkit='http://www.rdkit.org/xml'
                      xmlns:xlink='http://www.w3.org/1999/xlink'
                  xml:space='preserve'
width='256px' height='256px' viewBox='0 0 256 256'>
<!-- END OF HEADER -->
<rect style='opacity:1.0;fill:#FFFFFF;stroke:none' width='256.0' height='256.0' x='0.0' y='0.0'> </rect>
<ellipse cx='118.2' cy='134.9' rx='12.7' ry='12.7' class='atom-0'  style='fill:#FF7F7F;fill-rule:evenodd;stroke:#FF7F7F;stroke-width:1.0px;stroke-linecap:butt;stroke-linejoin:miter;stroke-opacity:1' />
<path class='bond-0 atom-1 atom-2' d='M 121.1,97.0 L 131.6,93.1' style='fill:none;fill-rule:evenodd;stroke:#000000;stroke-width:2.0px;stroke-linecap:butt;stroke-linejoin:miter;stroke-opacity:1' />
<path class='bond-1 atom-2 atom-3' d='M 137.3,102.8 L 131.1,78.5' style='fill:none;fill-rule:evenodd;stroke:#000000;stroke-width:2.0px;stroke-linecap:butt;stroke-linejoin:miter;stroke-opacity:1' />
<path class='bond-1 atom-2 atom-3' d='M 128.7,94.2 L 125.0,80.0' style='fill:none;fill-rule:evenodd;stroke:#000000;stroke-width:2.0px;stroke-linecap:butt;stroke-linejoin:miter;stroke-opacity:1' />
<path class='bond-2 atom-2 atom-4' d='M 131.6,93.1 L 158.3,138.1' style='fill:none;fill-rule:evenodd;stroke:#000000;stroke-width:2.0px;stroke-linecap:butt;stroke-linejoin:miter;stroke-opacity:1' />
<path class='bond-3 atom-4 atom-5' d='M 158.3,138.1 L 137.6,164.3' style='fill:none;fill-rule:evenodd;stroke:#000000;stroke-width:2.0px;stroke-linecap:butt;stroke-linejoin:miter;stroke-opacity:1' />
<path class='bond-4 atom-5 atom-6' d='M 121.5,179.7 L 95.6,198.1' style='fill:none;fill-rule:evenodd;stroke:#000000;stroke-width:2.0px;stroke-linecap:butt;stroke-linejoin:miter;stroke-opacity:1' />
<path class='bond-5 atom-6 atom-7' d='M 95.6,198.1 L 61.8,173.1' style='fill:none;fill-rule:evenodd;stroke:#000000;stroke-width:2.0px;stroke-linecap:butt;stroke-linejoin:miter;stroke-opacity:1' />
<path class='bond-6 atom-7 atom-8' d='M 63.0,169.5 L 28.7,178.2' style='fill:none;fill-rule:evenodd;stroke:#000000;stroke-width:2.0px;stroke-linecap:butt;stroke-linejoin:miter;stroke-opacity:1' />
<path class='bond-6 atom-7 atom-8' d='M 65.1,175.5 L 30.2,184.2' style='fill:none;fill-rule:evenodd;stroke:#000000;stroke-width:2.0px;stroke-linecap:butt;stroke-linejoin:miter;stroke-opacity:1' />
<path class='bond-7 atom-7 atom-9' d='M 61.8,173.1 L 70.6,148.0' style='fill:none;fill-rule:evenodd;stroke:#000000;stroke-width:2.0px;stroke-linecap:butt;stroke-linejoin:miter;stroke-opacity:1' />
<path class='bond-8 atom-5 atom-10' d='M 139.5,173.4 L 176.2,174.1' style='fill:none;fill-rule:evenodd;stroke:#000000;stroke-width:2.0px;stroke-linecap:butt;stroke-linejoin:miter;stroke-opacity:1' />
<path class='bond-9 atom-10 atom-11' d='M 176.2,174.1 L 193.5,132.1' style='fill:none;fill-rule:evenodd;stroke:#000000;stroke-width:2.0px;stroke-linecap:butt;stroke-linejoin:miter;stroke-opacity:1' />
<path class='bond-10 atom-11 atom-12' d='M 192.1,135.6 L 226.8,128.1' style='fill:none;fill-rule:evenodd;stroke:#000000;stroke-width:2.0px;stroke-linecap:butt;stroke-linejoin:miter;stroke-opacity:1' />
<path class='bond-10 atom-11 atom-12' d='M 190.5,129.5 L 225.5,121.9' style='fill:none;fill-rule:evenodd;stroke:#000000;stroke-width:2.0px;stroke-linecap:butt;stroke-linejoin:miter;stroke-opacity:1' />
<path class='bond-11 atom-11 atom-13' d='M 193.5,132.1 L 171.2,113.0' style='fill:none;fill-rule:evenodd;stroke:#000000;stroke-width:2.0px;stroke-linecap:butt;stroke-linejoin:miter;stroke-opacity:1' />
<path class='bond-12 atom-1 atom-0' d='M 111.4,116.7 L 114.8,125.9' style='fill:none;fill-rule:evenodd;stroke:#000000;stroke-width:2.0px;stroke-linecap:butt;stroke-linejoin:miter;stroke-opacity:1' />
<path class='bond-13 atom-5 atom-0' d='M 127.6,164.3 L 122.7,149.0' style='fill:none;fill-rule:evenodd;stroke:#000000;stroke-width:2.0px;stroke-linecap:butt;stroke-linejoin:miter;stroke-opacity:1' />
<path class='bond-14 atom-9 atom-0' d='M 91.1,134.3 L 109.2,134.7' style='fill:none;fill-rule:evenodd;stroke:#000000;stroke-width:2.0px;stroke-linecap:butt;stroke-linejoin:miter;stroke-opacity:1' />
<path class='bond-15 atom-13 atom-0' d='M 153.2,111.4 L 127.2,128.9' style='fill:none;fill-rule:evenodd;stroke:#000000;stroke-width:2.0px;stroke-linecap:butt;stroke-linejoin:miter;stroke-opacity:1' />
<path d='M 131.1,93.3 L 131.6,93.1 L 133.0,95.4' style='fill:none;stroke:#000000;stroke-width:2.0px;stroke-linecap:butt;stroke-linejoin:miter;stroke-miterlimit:10;stroke-opacity:1;' />
<path d='M 157.0,135.9 L 158.3,138.1 L 157.2,139.4' style='fill:none;stroke:#000000;stroke-width:2.0px;stroke-linecap:butt;stroke-linejoin:miter;stroke-miterlimit:10;stroke-opacity:1;' />
<path d='M 96.9,197.1 L 95.6,198.1 L 93.9,196.8' style='fill:none;stroke:#000000;stroke-width:2.0px;stroke-linecap:butt;stroke-linejoin:miter;stroke-miterlimit:10;stroke-opacity:1;' />
<path d='M 63.5,174.3 L 61.8,173.1 L 62.2,171.8' style='fill:none;stroke:#000000;stroke-width:2.0px;stroke-linecap:butt;stroke-linejoin:miter;stroke-miterlimit:10;stroke-opacity:1;' />
<path d='M 174.3,174.1 L 176.2,174.1 L 177.0,172.0' style='fill:none;stroke:#000000;stroke-width:2.0px;stroke-linecap:butt;stroke-linejoin:miter;stroke-miterlimit:10;stroke-opacity:1;' />
<path d='M 192.6,134.2 L 193.5,132.1 L 192.4,131.1' style='fill:none;stroke:#000000;stroke-width:2.0px;stroke-linecap:butt;stroke-linejoin:miter;stroke-miterlimit:10;stroke-opacity:1;' />
<text x='110.6' y='147.6' class='atom-0' style='font-size:25px;font-style:normal;font-weight:normal;fill-opacity:1;stroke:none;font-family:sans-serif;text-anchor:start;fill:#000000' ></text>
<text x='98.6' y='115.3' class='atom-1' style='font-size:25px;font-style:normal;font-weight:normal;fill-opacity:1;stroke:none;font-family:sans-serif;text-anchor:start;fill:#000000' >O</text>
<text x='116.1' y='105.1' class='atom-1' style='font-size:16px;font-style:normal;font-weight:normal;fill-opacity:1;stroke:none;font-family:sans-serif;text-anchor:start;fill:#000000' >-</text>
<text x='116.8' y='77.9' class='atom-3' style='font-size:25px;font-style:normal;font-weight:normal;fill-opacity:1;stroke:none;font-family:sans-serif;text-anchor:start;fill:#000000' >O</text>
<text x='122.9' y='186.0' class='atom-5' style='font-size:25px;font-style:normal;font-weight:normal;fill-opacity:1;stroke:none;font-family:sans-serif;text-anchor:start;fill:#000000' >N</text>
<text x='12.8' y='196.2' class='atom-8' style='font-size:25px;font-style:normal;font-weight:normal;fill-opacity:1;stroke:none;font-family:sans-serif;text-anchor:start;fill:#000000' >O</text>
<text x='67.9' y='146.6' class='atom-9' style='font-size:25px;font-style:normal;font-weight:normal;fill-opacity:1;stroke:none;font-family:sans-serif;text-anchor:start;fill:#000000' >O</text>
<text x='85.4' y='136.5' class='atom-9' style='font-size:16px;font-style:normal;font-weight:normal;fill-opacity:1;stroke:none;font-family:sans-serif;text-anchor:start;fill:#000000' >-</text>
<text x='227.6' y='135.8' class='atom-12' style='font-size:25px;font-style:normal;font-weight:normal;fill-opacity:1;stroke:none;font-family:sans-serif;text-anchor:start;fill:#000000' >O</text>
<text x='154.5' y='118.0' class='atom-13' style='font-size:25px;font-style:normal;font-weight:normal;fill-opacity:1;stroke:none;font-family:sans-serif;text-anchor:start;fill:#000000' >O</text>
<text x='172.1' y='107.8' class='atom-13' style='font-size:16px;font-style:normal;font-weight:normal;fill-opacity:1;stroke:none;font-family:sans-serif;text-anchor:start;fill:#000000' >-</text>
</svg>
